; generated by Slic3r 1.1.7 on 2014-12-12 at 04:42:44

; perimeters extrusion width = 0.40mm
; infill extrusion width = 0.42mm
; solid infill extrusion width = 0.42mm
; top infill extrusion width = 0.42mm

; perimeters extrusion width = 0.40mm
; infill extrusion width = 0.42mm
; solid infill extrusion width = 0.42mm
; top infill extrusion width = 0.42mm

G21 ; set units to millimeters
M107
M104 S200 T0 ; set temperature
M104 S200 T1 ; set temperature
G28 ; home all axes
G1 Z5 F5000 ; lift nozzle
M109 S200 T0 ; wait for temperature to be reached
M109 S200 T1 ; wait for temperature to be reached
G90 ; use absolute coordinates
G92 E0
M82 ; use absolute distances for extrusion
T0
G92 E0
G1 F1800.000 E-1.00000
G92 E0
G1 Z0.350 F7800.000
G1 X31.772 Y31.488 F7800.000
G1 E1.00000 F1800.000
G1 X33.494 Y29.937 E1.21435 F1080.000
G1 X36.025 Y28.099 E1.50361
G1 X38.027 Y26.944 E1.71739
G1 X40.878 Y25.674 E2.00613
G1 X43.082 Y24.958 E2.22038
G1 X46.135 Y24.309 E2.50907
G1 X48.439 Y24.067 E2.72341
G1 X51.561 Y24.067 E3.01210
G1 X53.865 Y24.309 E3.22644
G1 X56.918 Y24.958 E3.51512 F1080.000
G1 X59.122 Y25.674 E3.72944
G1 X61.974 Y26.944 E4.01815
G1 X63.980 Y28.102 E4.23246
G1 X66.506 Y29.937 E4.52115
G1 X68.228 Y31.488 E4.73550
G1 X70.316 Y33.807 E5.02419
G1 X71.679 Y35.682 E5.23853
G1 X73.239 Y38.385 E5.52721
G1 X74.182 Y40.502 E5.74156
G1 X75.147 Y43.472 E6.03034
G1 X75.628 Y45.737 E6.24455
G1 X75.954 Y48.841 E6.53325
G1 X75.954 Y51.159 E6.74759
G1 X75.628 Y54.263 E7.03628
G1 X75.146 Y56.529 E7.25060
G1 X74.181 Y59.499 E7.53936
G1 X73.239 Y61.615 E7.75362
G1 X71.679 Y64.318 E8.04231
G1 X70.316 Y66.193 E8.25665
G1 X68.228 Y68.512 E8.54533
G1 X66.506 Y70.063 E8.75969
G1 X63.980 Y71.898 E9.04843
G1 X61.973 Y73.056 E9.26272
G1 X59.122 Y74.326 E9.55146
G1 X56.918 Y75.042 E9.76571
G1 X53.864 Y75.691 E10.05454
G1 X51.561 Y75.933 E10.26874
G1 X48.439 Y75.933 E10.55743
G1 X46.135 Y75.691 E10.77174
G1 X43.076 Y75.041 E11.06097
G1 X40.878 Y74.326 E11.27477
G1 X38.027 Y73.056 E11.56345
G1 X36.020 Y71.898 E11.77780
G1 X33.494 Y70.063 E12.06653
G1 X31.772 Y68.513 E12.28082
G1 X29.684 Y66.193 E12.56953
G1 X28.321 Y64.318 E12.78387
G1 X26.760 Y61.613 E13.07280
G1 X25.818 Y59.498 E13.28689
G1 X24.851 Y56.522 E13.57629
G1 X24.372 Y54.263 E13.78988
G1 X24.046 Y51.159 E14.07859
G1 X24.046 Y48.841 E14.29293
G1 X24.372 Y45.733 E14.58198
G1 X24.854 Y43.471 E14.79594
G1 X25.819 Y40.501 E15.08471
G1 X26.761 Y38.385 E15.29897
G1 X28.321 Y35.682 E15.58765
G1 X29.684 Y33.807 E15.80199
G1 X31.732 Y31.532 E16.08513
G1 X32.244 Y31.913 F7800.000
G1 X33.868 Y30.451 E16.28719 F1080.000
G1 X36.398 Y28.613 E16.57641
G1 X38.285 Y27.524 E16.77793
G1 X41.137 Y26.255 E17.06667
G1 X43.214 Y25.580 E17.26864
G1 X46.267 Y24.931 E17.55732
G1 X48.439 Y24.702 E17.75938
G1 X51.561 Y24.702 E18.04806
G1 X53.733 Y24.931 E18.25011
G1 X56.786 Y25.580 E18.53880 F1080.000
G1 X58.864 Y26.255 E18.74082
G1 X61.715 Y27.524 E19.02953
G1 X63.607 Y28.616 E19.23156
G1 X66.132 Y30.451 E19.52025
G1 X67.756 Y31.913 E19.72231
G1 X69.844 Y34.232 E20.01099
G1 X71.128 Y36.000 E20.21304
G1 X72.689 Y38.703 E20.50173
G1 X73.577 Y40.699 E20.70378
G1 X74.542 Y43.668 E20.99256
G1 X74.996 Y45.803 E21.19449
G1 X75.322 Y48.908 E21.48318
G1 X75.322 Y51.092 E21.68524
G1 X74.996 Y54.196 E21.97392
G1 X74.542 Y56.333 E22.17595
G1 X73.577 Y59.302 E22.46471
G1 X72.689 Y61.297 E22.66669
G1 X71.128 Y64.000 E22.95537
G1 X69.844 Y65.768 E23.15742
G1 X67.756 Y68.087 E23.44611
G1 X66.132 Y69.549 E23.64817
G1 X63.606 Y71.384 E23.93691
G1 X61.715 Y72.476 E24.13891
G1 X58.863 Y73.745 E24.42765
G1 X56.786 Y74.420 E24.62962
G1 X53.732 Y75.069 E24.91842
G1 X51.561 Y75.298 E25.12035
G1 X48.439 Y75.298 E25.40904
G1 X46.267 Y75.069 E25.61106
G1 X43.209 Y74.419 E25.90026
G1 X41.136 Y73.745 E26.10180
G1 X38.285 Y72.476 E26.39048
G1 X36.393 Y71.384 E26.59254
G1 X33.868 Y69.549 E26.88127
G1 X32.245 Y68.087 E27.08327
G1 X30.156 Y65.768 E27.37198
G1 X28.872 Y64.000 E27.57403
G1 X27.310 Y61.295 E27.86294
G1 X26.423 Y59.301 E28.06476
G1 X25.456 Y56.326 E28.35412
G1 X25.004 Y54.197 E28.55546
G1 X24.678 Y51.092 E28.84416
G1 X24.678 Y48.908 E29.04622
G1 X25.005 Y45.800 E29.33525
G1 X25.458 Y43.667 E29.53694
G1 X26.423 Y40.698 E29.82570
G1 X27.311 Y38.703 E30.02767
G1 X28.872 Y36.000 E30.31636
G1 X30.156 Y34.232 E30.51841
G1 X32.204 Y31.957 E30.80154
T1
G92 E0
G1 X32.717 Y32.338 F7800.000
G1 X34.242 Y30.965 E0.18977 F1080.000
G1 X36.771 Y29.127 E0.47896
G1 X38.544 Y28.105 E0.66822
G1 X41.395 Y26.835 E0.95696
G1 X43.346 Y26.202 E1.14664
G1 X46.399 Y25.553 E1.43533
G1 X48.439 Y25.338 E1.62509
G1 X51.561 Y25.338 E1.91377
G1 X53.601 Y25.553 E2.10354
G1 X56.654 Y26.202 E2.39222 F1080.000
G1 X58.605 Y26.835 E2.58195
G1 X61.457 Y28.105 E2.87066
G1 X63.233 Y29.131 E3.06040
G1 X65.758 Y30.965 E3.34909
G1 X67.283 Y32.338 E3.53886
G1 X69.372 Y34.658 E3.82754
G1 X70.578 Y36.318 E4.01730
G1 X72.138 Y39.021 E4.30599
G1 X72.973 Y40.895 E4.49575
G1 X73.937 Y43.864 E4.78452
G1 X74.364 Y45.870 E4.97417
G1 X74.690 Y48.974 E5.26286
G1 X74.690 Y51.026 E5.45262
G1 X74.364 Y54.130 E5.74131
G1 X73.937 Y56.137 E5.93105
G1 X72.972 Y59.106 E6.21981
G1 X72.138 Y60.979 E6.40950
G1 X70.578 Y63.682 E6.69818
G1 X69.372 Y65.342 E6.88794
G1 X67.283 Y67.662 E7.17663
G1 X65.758 Y69.035 E7.36639
G1 X63.233 Y70.870 E7.65513
G1 X61.456 Y71.895 E7.84485
G1 X58.605 Y73.165 E8.13358
G1 X56.654 Y73.798 E8.32326
G1 X53.600 Y74.448 E8.61204
G1 X51.561 Y74.662 E8.80171
G1 X48.439 Y74.662 E9.09040
G1 X46.399 Y74.447 E9.28013
G1 X43.341 Y73.797 E9.56930
G1 X41.395 Y73.165 E9.75858
G1 X38.544 Y71.895 E10.04726
G1 X36.767 Y70.869 E10.23703
G1 X34.241 Y69.034 E10.52576
G1 X32.717 Y67.662 E10.71547
G1 X30.628 Y65.342 E11.00417
G1 X29.422 Y63.682 E11.19393
G1 X27.861 Y60.977 E11.48283
G1 X27.027 Y59.105 E11.67238
G1 X26.061 Y56.130 E11.96169
G1 X25.636 Y54.130 E12.15079
G1 X25.310 Y51.026 E12.43949
G1 X25.310 Y48.974 E12.62926
G1 X25.637 Y45.867 E12.91826
G1 X26.063 Y43.863 E13.10769
G1 X27.028 Y40.894 E13.39644
G1 X27.862 Y39.021 E13.58613
G1 X29.422 Y36.318 E13.87481
G1 X30.628 Y34.658 E14.06457
G1 X32.677 Y32.383 E14.34771
G1 X33.189 Y32.764 F7800.000
G1 X34.615 Y31.480 E14.52519 F1080.000
G1 X37.144 Y29.642 E14.81435
G1 X38.802 Y28.686 E14.99135
G1 X41.654 Y27.416 E15.28008
G1 X43.478 Y26.823 E15.45748
G1 X46.531 Y26.174 E15.74616
G1 X48.439 Y25.974 E15.92364
G1 X51.561 Y25.974 E16.21232
G1 X53.469 Y26.174 E16.38979
G1 X56.522 Y26.823 E16.67848 F1080.000
G1 X58.347 Y27.416 E16.85592
G1 X61.198 Y28.686 E17.14463
G1 X62.860 Y29.645 E17.32208
G1 X65.385 Y31.480 E17.61077
G1 X66.811 Y32.763 E17.78824
G1 X68.899 Y35.083 E18.07693
G1 X70.027 Y36.635 E18.25440
G1 X71.588 Y39.338 E18.54308
G1 X72.368 Y41.091 E18.72055
G1 X73.333 Y44.061 E19.00932
G1 X73.732 Y45.936 E19.18668
G1 X74.058 Y49.041 E19.47538
G1 X74.058 Y50.959 E19.65285
G1 X73.732 Y54.064 E19.94153
G1 X73.333 Y55.940 E20.11899
G1 X72.368 Y58.909 E20.40774
G1 X71.588 Y60.662 E20.58514
G1 X70.027 Y63.365 E20.87383
G1 X68.899 Y64.917 E21.05129
G1 X66.811 Y67.236 E21.33998
G1 X65.385 Y68.520 E21.51746
G1 X62.859 Y70.355 E21.80619
G1 X61.198 Y71.314 E21.98362
G1 X58.346 Y72.584 E22.27235
G1 X56.522 Y73.177 E22.44975
G1 X53.468 Y73.826 E22.73850
G1 X51.561 Y74.026 E22.91591
G1 X48.439 Y74.026 E23.20459
G1 X46.531 Y73.826 E23.38204
G1 X43.474 Y73.176 E23.67117
G1 X41.653 Y72.584 E23.84819
G1 X38.802 Y71.314 E24.13688
G1 X37.140 Y70.355 E24.31435
G1 X34.615 Y68.520 E24.60308
G1 X33.189 Y67.237 E24.78050
G1 X31.101 Y64.917 E25.06920
G1 X29.973 Y63.365 E25.24667
G1 X28.411 Y60.660 E25.53556
G1 X27.632 Y58.909 E25.71283
G1 X26.665 Y55.934 E26.00210
G1 X26.268 Y54.064 E26.17895
G1 X25.942 Y50.959 E26.46765
G1 X25.942 Y49.041 E26.64513
G1 X26.269 Y45.933 E26.93411
G1 X26.667 Y44.060 E27.11127
G1 X27.632 Y41.091 E27.40002
G1 X28.412 Y39.338 E27.57742
G1 X29.973 Y36.635 E27.86610
G1 X31.101 Y35.083 E28.04357
G1 X33.149 Y32.808 E28.32671
T0
G92 E0
G1 X33.662 Y33.189 F7800.000
G1 X34.989 Y31.994 E0.16519 F1080.000
G1 X37.518 Y30.156 E0.45432
G1 X39.061 Y29.266 E0.61906
G1 X41.912 Y27.997 E0.90779
G1 X43.610 Y27.445 E1.07290
G1 X46.663 Y26.796 E1.36158
G1 X48.439 Y26.609 E1.52677
G1 X51.561 Y26.609 E1.81545
G1 X53.337 Y26.796 E1.98063
G1 X56.390 Y27.445 E2.26932 F1080.000
G1 X58.088 Y27.997 E2.43447
G1 X60.940 Y29.266 E2.72318
G1 X62.486 Y30.159 E2.88834
G1 X65.011 Y31.994 E3.17703
G1 X66.363 Y33.216 E3.34558
G1 X68.427 Y35.508 E3.63088
G1 X69.477 Y36.953 E3.79606
G1 X71.037 Y39.656 E4.08474
G1 X71.764 Y41.288 E4.24992
G1 X72.728 Y44.257 E4.53868
G1 X73.099 Y46.003 E4.70376
G1 X73.426 Y49.107 E4.99246
G1 X73.426 Y50.893 E5.15764
G1 X73.099 Y53.997 E5.44632
G1 X72.728 Y55.744 E5.61149
G1 X71.763 Y58.713 E5.90023
G1 X71.037 Y60.344 E6.06535
G1 X69.477 Y63.047 E6.35404
G1 X68.427 Y64.492 E6.51921
G1 X66.338 Y66.811 E6.80790
G1 X65.011 Y68.006 E6.97309
G1 X62.486 Y69.841 E7.26182
G1 X60.939 Y70.734 E7.42696
G1 X58.088 Y72.003 E7.71568
G1 X56.390 Y72.555 E7.88080
G1 X53.336 Y73.204 E8.16952
G1 X51.561 Y73.391 E8.33466
G1 X48.439 Y73.391 E8.62335
G1 X46.664 Y73.204 E8.78850
G1 X43.606 Y72.554 E9.07761
G1 X41.912 Y72.003 E9.24237
G1 X39.061 Y70.734 E9.53105
G1 X37.514 Y69.841 E9.69624
G1 X34.988 Y68.006 E9.98496
G1 X33.662 Y66.811 E10.15010
G1 X31.573 Y64.492 E10.43880
G1 X30.523 Y63.047 E10.60398
G1 X28.962 Y60.342 E10.89285
G1 X28.236 Y58.712 E11.05784
G1 X27.270 Y55.738 E11.34708
G1 X26.901 Y53.997 E11.51168
G1 X26.574 Y50.893 E11.80038
G1 X26.574 Y49.107 E11.96556
G1 X26.901 Y46.000 E12.25452
G1 X27.272 Y44.256 E12.41941
G1 X28.237 Y41.287 E12.70816
G1 X28.963 Y39.656 E12.87327
G1 X30.523 Y36.953 E13.16196
G1 X31.573 Y35.508 E13.32714
G1 X33.621 Y33.233 E13.61027
G1 X34.134 Y33.614 F7800.000
G1 X35.362 Y32.508 E13.76317 F1080.000
G1 X37.891 Y30.671 E14.05226
G1 X39.319 Y29.847 E14.20475
G1 X42.171 Y28.577 E14.49347
G1 X43.742 Y28.067 E14.64630
G1 X46.795 Y27.418 E14.93499
G1 X48.439 Y27.245 E15.08788
G1 X51.561 Y27.245 E15.37656
G1 X53.205 Y27.418 E15.52945
G1 X56.258 Y28.067 E15.81814 F1080.000
G1 X57.829 Y28.577 E15.97100
G1 X60.681 Y29.847 E16.25971
G1 X62.112 Y30.673 E16.41258
G1 X64.638 Y32.508 E16.70127
G1 X65.866 Y33.614 E16.85416
G1 X67.955 Y35.934 E17.14285
G1 X68.926 Y37.271 E17.29574
G1 X70.487 Y39.974 E17.58442
G1 X71.159 Y41.484 E17.73731
G1 X72.124 Y44.453 E18.02607
G1 X72.467 Y46.069 E18.17886
G1 X72.794 Y49.173 E18.46755
G1 X72.794 Y50.827 E18.62045
G1 X72.467 Y53.931 E18.90913
G1 X72.124 Y55.547 E19.06201
G1 X71.159 Y58.516 E19.35075
G1 X70.487 Y60.026 E19.50358
G1 X68.926 Y62.729 E19.79226
G1 X67.955 Y64.066 E19.94515
G1 X65.866 Y66.386 E20.23384
G1 X64.638 Y67.492 E20.38673
G1 X62.112 Y69.327 E20.67546
G1 X60.681 Y70.153 E20.82831
G1 X57.829 Y71.423 E21.11704
G1 X56.258 Y71.933 E21.26986
G1 X53.205 Y72.582 E21.55855
G1 X51.561 Y72.755 E21.71144
G1 X48.439 Y72.755 E22.00012
G1 X46.796 Y72.582 E22.15299
G1 X43.739 Y71.932 E22.44207
G1 X42.171 Y71.423 E22.59457
G1 X39.319 Y70.153 E22.88325
G1 X37.888 Y69.327 E23.03614
G1 X35.362 Y67.492 E23.32486
G1 X34.134 Y66.386 E23.47771
G1 X32.045 Y64.066 E23.76641
G1 X31.074 Y62.729 E23.91930
G1 X29.512 Y60.024 E24.20816
G1 X28.841 Y58.516 E24.36088
G1 X27.875 Y55.542 E24.65007
G1 X27.533 Y53.931 E24.80242
G1 X27.206 Y50.827 E25.09112
G1 X27.206 Y49.173 E25.24401
G1 X27.533 Y46.067 E25.53296
G1 X27.876 Y44.453 E25.68557
G1 X28.841 Y41.484 E25.97432
G1 X29.513 Y39.974 E26.12715
G1 X31.074 Y37.271 E26.41583
G1 X32.045 Y35.934 E26.56872
G1 X34.094 Y33.659 E26.85186
T1
G92 E0
G1 X34.606 Y34.039 F7800.000
G1 X35.736 Y33.022 E0.14061 F1080.000
G1 X38.264 Y31.185 E0.42967
G1 X39.578 Y30.428 E0.56990
G1 X42.429 Y29.158 E0.85861
G1 X43.875 Y28.688 E0.99916
G1 X46.928 Y28.039 E1.28784
G1 X48.439 Y27.881 E1.42844
G1 X51.561 Y27.881 E1.71713
G1 X53.072 Y28.039 E1.85773
G1 X56.125 Y28.688 E2.14641 F1080.000
G1 X57.571 Y29.158 E2.28699
G1 X60.423 Y30.428 E2.57569
G1 X61.739 Y31.188 E2.71627
G1 X64.264 Y33.022 E3.00496
G1 X65.418 Y34.067 E3.14893
G1 X67.482 Y36.359 E3.43424
G1 X68.376 Y37.589 E3.57483
G1 X69.936 Y40.292 E3.86352
G1 X70.555 Y41.681 E4.00411
G1 X71.519 Y44.650 E4.29287
G1 X71.835 Y46.136 E4.43338
G1 X72.161 Y49.240 E4.72207
G1 X72.161 Y50.760 E4.86267
G1 X71.835 Y53.864 E5.15136
G1 X71.519 Y55.351 E5.29194
G1 X70.554 Y58.320 E5.58068
G1 X69.936 Y59.708 E5.72122
G1 X68.376 Y62.411 E6.00991
G1 X67.482 Y63.641 E6.15051
G1 X65.394 Y65.961 E6.43919
G1 X64.264 Y66.978 E6.57980
G1 X61.739 Y68.813 E6.86852
G1 X60.422 Y69.572 E7.00909
G1 X57.571 Y70.842 E7.29780
G1 X56.125 Y71.312 E7.43835
G1 X53.073 Y71.960 E7.72701
G1 X51.561 Y72.119 E7.86763
G1 X48.439 Y72.119 E8.15632
G1 X46.928 Y71.961 E8.29690
G1 X43.871 Y71.311 E8.58594
G1 X42.429 Y70.842 E8.72618
G1 X39.578 Y69.572 E9.01486
G1 X38.261 Y68.812 E9.15547
G1 X35.736 Y66.978 E9.44418
G1 X34.606 Y65.961 E9.58474
G1 X32.518 Y63.641 E9.87345
G1 X31.624 Y62.411 E10.01404
G1 X30.063 Y59.707 E10.30289
G1 X29.445 Y58.319 E10.44333
G1 X28.479 Y55.346 E10.73248
G1 X28.165 Y53.864 E10.87259
G1 X27.839 Y50.760 E11.16128
G1 X27.839 Y49.240 E11.30188
G1 X28.165 Y46.133 E11.59081
G1 X28.481 Y44.649 E11.73116
G1 X29.446 Y41.680 E12.01990
G1 X30.064 Y40.292 E12.16044
G1 X31.624 Y37.589 E12.44912
G1 X32.518 Y36.359 E12.58972
G1 X34.566 Y34.084 E12.87286
G1 X35.079 Y34.465 F7800.000
G1 X36.110 Y33.536 E13.00117 F1080.000
G1 X38.638 Y31.700 E13.29020
G1 X39.836 Y31.008 E13.41817
G1 X42.688 Y29.739 E13.70689
G1 X44.007 Y29.310 E13.83514
G1 X47.060 Y28.661 E14.12383
G1 X48.439 Y28.516 E14.25214
G1 X51.561 Y28.516 E14.54082
G1 X52.940 Y28.661 E14.66913
G1 X55.993 Y29.310 E14.95781 F1080.000
G1 X57.312 Y29.739 E15.08611
G1 X60.164 Y31.008 E15.37481
G1 X61.365 Y31.702 E15.50310
G1 X63.890 Y33.536 E15.79179
G1 X64.921 Y34.465 E15.92010
G1 X67.010 Y36.784 E16.20879
G1 X67.825 Y37.907 E16.33709
G1 X69.386 Y40.610 E16.62578
G1 X69.950 Y41.877 E16.75409
G1 X70.915 Y44.846 E17.04283
G1 X71.203 Y46.202 E17.17106
G1 X71.529 Y49.306 E17.45975
G1 X71.529 Y50.694 E17.58806
G1 X71.203 Y53.798 E17.87675
G1 X70.915 Y55.155 E18.00504
G1 X69.950 Y58.124 E18.29377
G1 X69.386 Y59.390 E18.42203
G1 X67.825 Y62.093 E18.71072
G1 X67.010 Y63.216 E18.83902
G1 X64.921 Y65.535 E19.12771
G1 X63.890 Y66.464 E19.25602
G1 X61.365 Y68.298 E19.54475
G1 X60.164 Y68.992 E19.67302
G1 X57.312 Y70.261 E19.96174
G1 X55.993 Y70.690 E20.09000
G1 X52.941 Y71.339 E20.37863
G1 X51.561 Y71.484 E20.50699
G1 X48.439 Y71.484 E20.79567
G1 X47.060 Y71.339 E20.92397
G1 X44.003 Y70.689 E21.21298
G1 X42.688 Y70.261 E21.34096
G1 X39.836 Y68.992 E21.62964
G1 X38.635 Y68.298 E21.75795
G1 X36.109 Y66.463 E22.04667
G1 X35.079 Y65.535 E22.17494
G1 X32.990 Y63.216 E22.46364
G1 X32.175 Y62.093 E22.59195
G1 X30.613 Y59.389 E22.88078
G1 X30.050 Y58.123 E23.00894
G1 X29.084 Y55.150 E23.29805
G1 X28.797 Y53.798 E23.42591
G1 X28.471 Y50.694 E23.71461
G1 X28.471 Y49.306 E23.84292
G1 X28.797 Y46.200 E24.13182
G1 X29.085 Y44.845 E24.25990
G1 X30.050 Y41.876 E24.54864
G1 X30.614 Y40.610 E24.67689
G1 X32.175 Y37.907 E24.96558
G1 X32.990 Y36.784 E25.09388
G1 X35.038 Y34.509 E25.37702
T0
G92 E0
G1 F1800.000 E-1.00000
G92 E0
G1 X58.899 Y59.884 F7800.000
G1 E1.00000 F1800.000
G1 X56.650 Y61.518 E1.25717 F540.000
G1 X54.110 Y62.649 E1.51433
G1 X51.390 Y63.227 E1.77149
G1 X48.610 Y63.227 E2.02866
G1 X45.890 Y62.649 E2.28582
G1 X43.350 Y61.518 E2.54298
G1 X41.101 Y59.884 E2.80015
G1 X39.240 Y57.817 E3.05731
G1 X37.850 Y55.410 E3.31448
G1 X36.991 Y52.765 E3.57164
G1 X36.700 Y50.000 E3.82881
G1 X36.991 Y47.235 E4.08597
G1 X37.850 Y44.590 E4.34313
G1 X39.240 Y42.183 E4.60030
G1 X41.101 Y40.116 E4.85746
G1 X43.350 Y38.482 E5.11462
G1 X45.890 Y37.351 E5.37179
G1 X48.610 Y36.773 E5.62895
G1 X51.390 Y36.773 E5.88612
G1 X54.110 Y37.351 E6.14328
G1 X56.650 Y38.482 E6.40044 F540.000
G1 X58.899 Y40.116 E6.65761
G1 X60.760 Y42.183 E6.91477
G1 X62.150 Y44.590 E7.17194
G1 X63.009 Y47.235 E7.42910
G1 X63.300 Y50.000 E7.68626
G1 X63.009 Y52.765 E7.94343
G1 X62.150 Y55.410 E8.20059
G1 X60.760 Y57.817 E8.45775
G1 X58.940 Y59.839 E8.70937
G1 X59.372 Y60.309 F7800.000
G1 X59.327 Y60.359 E8.71555 F540.000
G1 X56.969 Y62.072 E8.98507
