; generated by Slic3r 1.1.7 on 2014-12-11 at 23:45:54

; perimeters extrusion width = 0.40mm
; infill extrusion width = 0.42mm
; solid infill extrusion width = 0.42mm
; top infill extrusion width = 0.42mm

; perimeters extrusion width = 0.40mm
; infill extrusion width = 0.42mm
; solid infill extrusion width = 0.42mm
; top infill extrusion width = 0.42mm

G21 ; set units to millimeters
M107
M104 S200 ; set temperature 
G28 ; home all axes
G1 Z5 F5000 ; lift nozzle
M109 S200 ; wait for temperature to be reached 
G90 ; use absolute coordinates
G92 E0
M82 ; use absolute distances for extrusion
G92 E0
G92 E0
G1 F1800.000 E-1.00000
G92 E0
G1 Z0.350 F7800.000
G1 X26.069 Y26.602 F7800.000
G1 E1.00000 F1800.000
G1 X27.011 Y25.701 E1.12057 F1080.000
G1 X27.712 Y25.142 E1.20348
G1 X28.800 Y24.424 E1.32403
G1 X29.589 Y23.999 E1.40695
G1 X30.788 Y23.487 E1.52752
G1 X31.640 Y23.210 E1.61043
G1 X32.911 Y22.920 E1.73100
G1 X33.696 Y22.814 E1.80425
G1 X34.612 Y22.736 E1.88930
G1 X35.000 Y22.729 E1.92516
G1 X65.163 Y22.731 E4.71499
G1 X66.200 Y22.800 E4.81111 F1080.000
G1 X67.089 Y22.920 E4.89403
G1 X68.359 Y23.210 E5.01459
G1 X69.212 Y23.487 E5.09750
G1 X70.411 Y23.999 E5.21807
G1 X71.200 Y24.424 E5.30100
G1 X72.288 Y25.142 E5.42154
G1 X72.989 Y25.701 E5.50446
G1 X73.931 Y26.602 E5.62501
G1 X74.521 Y27.277 E5.70795
G1 X75.287 Y28.332 E5.82850
G1 X75.747 Y29.101 E5.91141
G1 X76.312 Y30.275 E6.03197
G1 X76.627 Y31.115 E6.11490
G1 X76.974 Y32.371 E6.23546
G1 X77.123 Y33.192 E6.31255
G1 X77.244 Y34.226 E6.40883
G1 X77.271 Y35.000 E6.48051
G1 X77.264 Y65.326 E9.28541
G1 X77.134 Y66.747 E9.41732
G1 X76.974 Y67.629 E9.50023
G1 X76.627 Y68.885 E9.62079
G1 X76.312 Y69.724 E9.70372
G1 X75.747 Y70.899 E9.82428
G1 X75.287 Y71.668 E9.90718
G1 X74.521 Y72.723 E10.02775
G1 X73.931 Y73.398 E10.11066
G1 X72.989 Y74.299 E10.23123
G1 X72.288 Y74.858 E10.31415
G1 X71.200 Y75.576 E10.43470
G1 X70.503 Y75.951 E10.50795
G1 X69.212 Y76.513 E10.63815
G1 X68.359 Y76.790 E10.72106
G1 X67.089 Y77.080 E10.84162
G1 X65.387 Y77.264 E10.99990
G1 X34.511 Y77.255 E13.85568
G1 X33.918 Y77.215 E13.91067
G1 X32.711 Y77.044 E14.02341
G1 X31.837 Y76.844 E14.10634
G1 X30.597 Y76.441 E14.22690
G1 X29.773 Y76.089 E14.30981
G1 X28.625 Y75.471 E14.43038
G1 X27.877 Y74.978 E14.51329
G1 X26.858 Y74.165 E14.63385
G1 X26.210 Y73.545 E14.71677
G1 X25.352 Y72.564 E14.83733
G1 X24.825 Y71.838 E14.92024
G1 X24.157 Y70.719 E15.04081
G1 X23.768 Y69.912 E15.12372
G1 X23.310 Y68.691 E15.24429
G1 X23.071 Y67.827 E15.32720
G1 X22.838 Y66.545 E15.44775
G1 X22.767 Y65.756 E15.52101
G1 X22.729 Y65.000 E15.59101
G1 X22.736 Y34.674 E18.39591
G1 X22.754 Y34.277 E18.43262
G1 X22.866 Y33.254 E18.52787
G1 X23.026 Y32.372 E18.61078
G1 X23.373 Y31.115 E18.73135
G1 X23.688 Y30.276 E18.81426
G1 X24.253 Y29.101 E18.93484
G1 X24.713 Y28.332 E19.01774
G1 X25.479 Y27.277 E19.13831
G1 X26.029 Y26.647 E19.21567
G1 X26.548 Y27.020 F7800.000
G1 X27.407 Y26.198 E19.32570 F1080.000
G1 X28.108 Y25.639 E19.40861
G1 X29.101 Y24.984 E19.51862
G1 X29.890 Y24.559 E19.60155
G1 X30.984 Y24.092 E19.71158
G1 X31.837 Y23.815 E19.79448
G1 X32.997 Y23.550 E19.90452
G1 X33.781 Y23.443 E19.97776
G1 X34.627 Y23.371 E20.05622
G1 X35.000 Y23.364 E20.09076
G1 X65.149 Y23.366 E22.87927
G1 X66.115 Y23.429 E22.96880 F1080.000
G1 X67.003 Y23.550 E23.05172
G1 X68.163 Y23.814 E23.16174
G1 X69.016 Y24.092 E23.24466
G1 X70.110 Y24.559 E23.35468
G1 X70.899 Y24.984 E23.43761
G1 X71.892 Y25.639 E23.54762
G1 X72.593 Y26.198 E23.63053
G1 X73.452 Y27.020 E23.74055
G1 X74.042 Y27.695 E23.82348
G1 X74.741 Y28.658 E23.93350
G1 X75.201 Y29.427 E24.01641
G1 X75.717 Y30.499 E24.12642
G1 X76.032 Y31.338 E24.20936
G1 X76.349 Y32.485 E24.31937
G1 X76.498 Y33.305 E24.39647
G1 X76.609 Y34.254 E24.48484
G1 X76.636 Y35.000 E24.55387
G1 X76.629 Y65.298 E27.35614
G1 X76.509 Y66.633 E27.48014
G1 X76.349 Y67.515 E27.56305
G1 X76.032 Y68.662 E27.67308
G1 X75.717 Y69.501 E27.75600
G1 X75.201 Y70.573 E27.86602
G1 X74.741 Y71.342 E27.94893
G1 X74.042 Y72.305 E28.05895
G1 X73.491 Y72.936 E28.13651
G1 X72.593 Y73.802 E28.25187
G1 X71.892 Y74.361 E28.33479
G1 X70.899 Y75.016 E28.44481
G1 X70.109 Y75.441 E28.52773
G1 X69.016 Y75.908 E28.63775
G1 X68.163 Y76.186 E28.72066
G1 X67.003 Y76.450 E28.83068
G1 X65.373 Y76.629 E28.98237
G1 X34.554 Y76.621 E31.83287
G1 X33.961 Y76.581 E31.88787
G1 X32.852 Y76.424 E31.99139
G1 X31.978 Y76.225 E32.07431
G1 X30.847 Y75.857 E32.18433
G1 X30.023 Y75.505 E32.26724
G1 X28.975 Y74.941 E32.37727
G1 X28.227 Y74.447 E32.46018
G1 X27.297 Y73.705 E32.57020
G1 X26.649 Y73.086 E32.65312
G1 X25.866 Y72.190 E32.76314
G1 X25.339 Y71.465 E32.84605
G1 X24.729 Y70.444 E32.95609
G1 X24.340 Y69.636 E33.03899
G1 X23.922 Y68.522 E33.14903
G1 X23.684 Y67.658 E33.23194
G1 X23.471 Y66.488 E33.34195
G1 X23.400 Y65.699 E33.41521
G1 X23.364 Y65.000 E33.47993
G1 X23.371 Y34.702 E36.28219
G1 X23.389 Y34.306 E36.31889
G1 X23.491 Y33.367 E36.40624
G1 X23.651 Y32.485 E36.48915
G1 X23.968 Y31.338 E36.59919
G1 X24.283 Y30.499 E36.68209
G1 X24.799 Y29.427 E36.79213
G1 X25.259 Y28.658 E36.87504
G1 X25.958 Y27.695 E36.98506
G1 X26.508 Y27.065 E37.06242
G1 F1800.000 E36.06242
G92 E0
G1 X61.754 Y61.754 F7800.000
G1 E1.00000 F1800.000
G1 X60.546 Y62.850 E1.15088 F540.000
G1 X59.235 Y63.822 E1.30177
G1 X57.836 Y64.660 E1.45265
G1 X56.361 Y65.358 E1.60353
G1 X54.825 Y65.907 E1.75441
G1 X53.243 Y66.304 E1.90530
G1 X50.738 Y66.675 E2.13950
G1 X50.738 Y66.587 E2.14768
G1 X50.000 Y66.623 E2.21604
G1 X48.371 Y66.543 E2.36692
G1 X46.757 Y66.304 E2.51780
G1 X45.175 Y65.907 E2.66869
G1 X43.639 Y65.358 E2.81957
G1 X42.164 Y64.660 E2.97045
G1 X40.765 Y63.822 E3.12135
G1 X39.454 Y62.850 E3.27222
G1 X38.246 Y61.754 E3.42310
G1 X37.150 Y60.546 E3.57399
G1 X36.178 Y59.235 E3.72487
G1 X35.340 Y57.836 E3.87575
G1 X34.642 Y56.361 E4.02663
G1 X34.093 Y54.825 E4.17752
G1 X33.696 Y53.243 E4.32840
G1 X33.609 Y52.655 E4.38342
G1 X33.457 Y51.629 E4.47928
G1 X33.377 Y50.000 E4.63016
G1 X33.457 Y48.371 E4.78105
G1 X33.696 Y46.757 E4.93193
G1 X34.093 Y45.175 E5.08281
G1 X34.642 Y43.639 E5.23369
G1 X34.897 Y43.101 E5.28871
G1 X35.340 Y42.164 E5.38458
G1 X36.178 Y40.765 E5.53546
G1 X37.150 Y39.454 E5.68634
G1 X38.246 Y38.246 E5.83722
G1 X38.686 Y37.846 E5.89224
G1 X39.454 Y37.150 E5.98811
G1 X40.765 Y36.178 E6.13899
G1 X42.164 Y35.340 E6.28987
G1 X43.639 Y34.642 E6.44075
G1 X44.614 Y34.293 E6.53662
G1 X45.175 Y34.093 E6.59164
G1 X46.757 Y33.696 E6.74252
G1 X48.371 Y33.457 E6.89340
G1 X50.000 Y33.377 E7.04428
G1 X50.594 Y33.406 E7.09930
G1 X51.629 Y33.457 E7.19517 F540.000
G1 X53.243 Y33.696 E7.34605
G1 X54.825 Y34.093 E7.49693
G1 X56.361 Y34.642 E7.64782
G1 X57.836 Y35.340 E7.79870
G1 X59.235 Y36.178 E7.94958
G1 X60.546 Y37.150 E8.10046
G1 X61.314 Y37.846 E8.19633
G1 X61.754 Y38.246 E8.25135
G1 X62.850 Y39.454 E8.40223
G1 X63.822 Y40.765 E8.55311
G1 X64.660 Y42.164 E8.70399
G1 X65.358 Y43.639 E8.85488
G1 X65.907 Y45.175 E9.00576
G1 X66.304 Y46.757 E9.15664
G1 X66.675 Y49.262 E9.39084
G1 X66.587 Y49.262 E9.39902
G1 X66.623 Y50.000 E9.46739
G1 X66.587 Y50.738 E9.53575
G1 X66.675 Y50.738 E9.54393
G1 X66.304 Y53.243 E9.77813
G1 X65.907 Y54.825 E9.92902
G1 X65.358 Y56.361 E10.07990
G1 X64.660 Y57.836 E10.23078
G1 X63.822 Y59.235 E10.38166
G1 X62.850 Y60.546 E10.53255
G1 X61.795 Y61.710 E10.67788
G1 X61.304 Y61.304 F7800.000
G1 X60.142 Y62.358 E10.82299 F540.000
G1 X58.882 Y63.293 E10.96809
G1 X57.536 Y64.099 E11.11320
G1 X56.118 Y64.770 E11.25831
G1 X54.641 Y65.298 E11.40341
G1 X53.119 Y65.680 E11.54852
G1 X51.374 Y65.938 E11.71168
G1 X51.374 Y65.919 E11.71345
G1 X50.000 Y65.987 E11.84068
G1 X48.433 Y65.910 E11.98578
G1 X46.881 Y65.680 E12.13089
G1 X45.359 Y65.298 E12.27600
G1 X43.882 Y64.770 E12.42110
G1 X43.373 Y64.529 E12.47323
G1 X42.464 Y64.099 E12.56621
G1 X41.118 Y63.293 E12.71132
G1 X39.858 Y62.358 E12.85642
G1 X38.696 Y61.304 E13.00153
G1 X37.642 Y60.142 E13.14663
G1 X36.707 Y58.882 E13.29174
G1 X35.901 Y57.536 E13.43685
G1 X35.230 Y56.118 E13.58195
G1 X34.702 Y54.641 E13.72706
G1 X34.320 Y53.119 E13.87217
G1 X34.238 Y52.561 E13.92430
G1 X34.090 Y51.567 E14.01727
G1 X34.013 Y50.000 E14.16238
G1 X34.090 Y48.433 E14.30749
G1 X34.320 Y46.881 E14.45259
G1 X34.702 Y45.359 E14.59770
G1 X35.230 Y43.882 E14.74280
G1 X35.471 Y43.373 E14.79494
G1 X35.901 Y42.464 E14.88791
G1 X36.707 Y41.118 E15.03302
G1 X37.642 Y39.858 E15.17812
G1 X38.696 Y38.696 E15.32323
G1 X39.440 Y38.021 E15.41621
G1 X39.858 Y37.642 E15.46834
G1 X41.118 Y36.707 E15.61344
G1 X42.464 Y35.901 E15.75855
G1 X43.882 Y35.230 E15.90366
G1 X45.359 Y34.702 E16.04876
G1 X46.881 Y34.320 E16.19387
G1 X48.433 Y34.090 E16.33897
G1 X49.437 Y34.041 E16.43195
G1 X50.000 Y34.013 E16.48408 F540.000
G1 X51.567 Y34.090 E16.62919
G1 X53.119 Y34.320 E16.77429
G1 X54.641 Y34.702 E16.91940
G1 X56.118 Y35.230 E17.06451
G1 X57.536 Y35.901 E17.20961
G1 X58.882 Y36.707 E17.35472
G1 X60.142 Y37.642 E17.49983
G1 X60.887 Y38.317 E17.59280
G1 X61.304 Y38.696 E17.64493
G1 X62.358 Y39.858 E17.79004
G1 X63.293 Y41.118 E17.93514
G1 X64.099 Y42.464 E18.08025
G1 X64.770 Y43.882 E18.22536
G1 X65.298 Y45.359 E18.37046
G1 X65.680 Y46.881 E18.51557
G1 X65.938 Y48.626 E18.67873
G1 X65.919 Y48.626 E18.68051
G1 X65.987 Y50.000 E18.80773
G1 X65.919 Y51.374 E18.93495
G1 X65.938 Y51.374 E18.93673
G1 X65.680 Y53.119 E19.09989
G1 X65.298 Y54.641 E19.24500
G1 X64.770 Y56.118 E19.39010
G1 X64.099 Y57.536 E19.53521
G1 X63.293 Y58.882 E19.68031
G1 X62.358 Y60.142 E19.82542
G1 X61.345 Y61.260 E19.96498
G1 X60.854 Y60.854 F7800.000
G1 X59.738 Y61.866 E20.10431 F378.000
G1 X58.528 Y62.763 E20.24364
G1 X57.236 Y63.538 E20.38297
G1 X55.874 Y64.182 E20.52230
G1 X54.456 Y64.689 E20.66163
G1 X52.995 Y65.055 E20.80096
G1 X51.505 Y65.277 E20.94029
G1 X50.532 Y65.324 E21.03038
G1 X50.000 Y65.350 E21.07962
G1 X48.495 Y65.277 E21.21895
G1 X47.005 Y65.055 E21.35828
G1 X45.544 Y64.689 E21.49761
G1 X44.126 Y64.182 E21.63694
G1 X42.764 Y63.538 E21.77627
G1 X41.472 Y62.763 E21.91560
G1 X40.262 Y61.866 E22.05493
G1 X39.146 Y60.854 E22.19426
G1 X38.134 Y59.738 E22.33359
G1 X37.237 Y58.528 E22.47292
G1 X36.462 Y57.236 E22.61225
G1 X35.818 Y55.874 E22.75158
G1 X35.311 Y54.456 E22.89091
G1 X34.945 Y52.995 E23.03024
G1 X34.866 Y52.468 E23.07948
G1 X34.724 Y51.505 E23.16957
G1 X34.650 Y50.000 E23.30890
G1 X34.723 Y48.495 E23.44823
G1 X34.945 Y47.005 E23.58756
G1 X35.311 Y45.544 E23.72689
G1 X35.818 Y44.126 E23.86622
G1 X36.046 Y43.644 E23.91546
G1 X36.462 Y42.764 E24.00555
G1 X37.237 Y41.472 E24.14488
G1 X38.134 Y40.262 E24.28421
G1 X39.146 Y39.146 E24.42354
G1 X39.867 Y38.492 E24.51363
G1 X40.262 Y38.134 E24.56287
G1 X41.472 Y37.237 E24.70220
G1 X42.764 Y36.462 E24.84153
G1 X44.126 Y35.818 E24.98086
G1 X45.043 Y35.490 E25.07095
G1 X45.544 Y35.311 E25.12019
G1 X47.005 Y34.945 E25.25952
G1 X48.495 Y34.723 E25.39885
G1 X50.000 Y34.650 E25.53818
G1 X50.532 Y34.676 E25.58743
G1 X51.505 Y34.723 E25.67751 F378.000
G1 X52.995 Y34.945 E25.81684
G1 X54.456 Y35.311 E25.95617
G1 X55.874 Y35.818 E26.09550
G1 X57.236 Y36.462 E26.23483
G1 X58.528 Y37.237 E26.37416
G1 X59.738 Y38.134 E26.51349
G1 X60.460 Y38.788 E26.60358
G1 X60.854 Y39.146 E26.65282
G1 X61.866 Y40.262 E26.79215
G1 X62.763 Y41.472 E26.93148
G1 X63.538 Y42.764 E27.07081
G1 X64.182 Y44.126 E27.21014
G1 X64.689 Y45.544 E27.34947
G1 X65.055 Y47.005 E27.48880
G1 X65.277 Y48.495 E27.62814
G1 X65.350 Y50.000 E27.76746
G1 X65.277 Y51.505 E27.90679
G1 X65.055 Y52.995 E28.04613
G1 X64.689 Y54.456 E28.18545
G1 X64.182 Y55.874 E28.32479
G1 X63.538 Y57.236 E28.46411
G1 X62.763 Y58.528 E28.60345
G1 X61.866 Y59.738 E28.74278
G1 X60.895 Y60.810 E28.87656
G1 F1800.000 E27.87656
G92 E0
G1 X50.488 Y34.278 F7800.000
G1 X68.379 Y60.854 F7800.000
G1 E1.00000 F1800.000
G1 X68.379 Y64.964 E1.38007 F540.000
G1 X68.365 Y65.266 E1.40809
G1 X68.251 Y65.897 E1.46739
G1 X68.038 Y66.463 E1.52331
G1 X67.728 Y66.982 E1.57922
G1 X67.330 Y67.437 E1.63514
G1 X66.858 Y67.814 E1.69106
G1 X66.325 Y68.101 E1.74697
G1 X65.750 Y68.288 E1.80289
G1 X65.097 Y68.376 E1.86388
G1 X35.055 Y68.379 E4.64253
G1 X34.565 Y68.346 E4.68789
G1 X33.958 Y68.207 E4.74550
G1 X33.402 Y67.970 E4.80142
G1 X32.897 Y67.637 E4.85734
G1 X32.460 Y67.219 E4.91325
G1 X32.105 Y66.730 E4.96917
G1 X31.843 Y66.185 E5.02509
G1 X31.682 Y65.602 E5.08101
G1 X31.621 Y64.927 E5.14368
G1 X31.621 Y35.036 E7.90831
G1 X31.635 Y34.734 E7.93633
G1 X31.749 Y34.103 E7.99563
G1 X31.962 Y33.537 E8.05155
G1 X32.272 Y33.018 E8.10747
G1 X32.670 Y32.563 E8.16338
G1 X33.142 Y32.186 E8.21930
G1 X33.675 Y31.899 E8.27522
G1 X34.250 Y31.712 E8.33113
G1 X34.903 Y31.624 E8.39213
G1 X64.990 Y31.621 E11.17487
G1 X65.750 Y31.712 E11.24573 F540.000
G1 X66.325 Y31.899 E11.30164
G1 X66.858 Y32.186 E11.35756
G1 X67.330 Y32.563 E11.41348
G1 X67.728 Y33.018 E11.46939
G1 X68.038 Y33.537 E11.52531
G1 X68.251 Y34.103 E11.58123
G1 X68.365 Y34.734 E11.64053
G1 X68.379 Y35.036 E11.66855
G1 X68.379 Y60.794 E14.05093
G1 X69.014 Y60.854 F7800.000
G1 X69.014 Y64.978 E14.43232 F540.000
G1 X68.998 Y65.338 E14.46562
G1 X68.866 Y66.067 E14.53418
G1 X68.613 Y66.740 E14.60068
G1 X68.244 Y67.357 E14.66718
G1 X67.771 Y67.899 E14.73368
G1 X67.209 Y68.347 E14.80017
G1 X66.576 Y68.688 E14.86667
G1 X65.892 Y68.910 E14.93317
G1 X65.147 Y69.011 E15.00276
G1 X64.989 Y69.014 E15.01737
G1 X35.033 Y69.014 E17.78800
G1 X34.473 Y68.977 E17.83998
G1 X33.761 Y68.814 E17.90750
G1 X33.100 Y68.532 E17.97400
G1 X32.500 Y68.135 E18.04050
G1 X31.980 Y67.639 E18.10700
G1 X31.557 Y67.057 E18.17350
G1 X31.245 Y66.409 E18.24000
G1 X31.054 Y65.716 E18.30650
G1 X30.986 Y64.956 E18.37711
G1 X30.986 Y35.022 E21.14570
G1 X31.002 Y34.662 E21.17900
G1 X31.134 Y33.933 E21.24756
G1 X31.387 Y33.260 E21.31406
G1 X31.756 Y32.643 E21.38056
G1 X32.229 Y32.101 E21.44705
G1 X32.791 Y31.653 E21.51356
G1 X33.424 Y31.312 E21.58005
G1 X34.108 Y31.090 E21.64655
G1 X34.853 Y30.989 E21.71614
G1 X35.011 Y30.986 E21.73075
G1 X65.147 Y30.989 E24.51804 F540.000
G1 X65.892 Y31.090 E24.58762
G1 X66.576 Y31.312 E24.65412
G1 X67.209 Y31.653 E24.72062
G1 X67.771 Y32.101 E24.78712
G1 X68.244 Y32.643 E24.85362
G1 X68.613 Y33.260 E24.92012
G1 X68.866 Y33.933 E24.98662
G1 X68.998 Y34.662 E25.05517
G1 X69.014 Y35.022 E25.08848
G1 X69.014 Y60.794 E27.47218
G1 X69.650 Y60.854 F7800.000
G1 X69.650 Y64.992 E27.85488 F378.000
G1 X69.631 Y65.409 E27.89347
G1 X69.481 Y66.237 E27.97128
G1 X69.188 Y67.017 E28.04836
G1 X68.761 Y67.732 E28.12545
G1 X68.212 Y68.360 E28.20253
G1 X67.561 Y68.880 E28.27961
G1 X66.827 Y69.275 E28.35669
G1 X66.034 Y69.532 E28.43377
G1 X65.197 Y69.645 E28.51195
G1 X35.012 Y69.650 E31.30379
G1 X34.380 Y69.607 E31.36237
G1 X33.564 Y69.421 E31.43982
G1 X32.797 Y69.094 E31.51690
G1 X32.102 Y68.634 E31.59398
G1 X31.499 Y68.058 E31.67106
G1 X31.009 Y67.384 E31.74814
G1 X30.648 Y66.633 E31.82522
G1 X30.426 Y65.830 E31.90230
G1 X30.350 Y64.984 E31.98084
G1 X30.350 Y35.008 E34.75339
G1 X30.369 Y34.591 E34.79198
G1 X30.544 Y33.626 E34.88266
G1 X30.570 Y33.626 E34.88512
G1 X30.812 Y32.983 E34.94867
G1 X31.239 Y32.268 E35.02575
G1 X31.788 Y31.640 E35.10283
G1 X32.439 Y31.120 E35.17992
G1 X33.173 Y30.725 E35.25700
G1 X33.966 Y30.468 E35.33408
G1 X34.803 Y30.355 E35.41225
G1 X65.018 Y30.351 E38.20688
G1 X65.197 Y30.355 E38.22340 F378.000
G1 X66.034 Y30.468 E38.30157
G1 X66.827 Y30.725 E38.37865
G1 X67.561 Y31.120 E38.45573
G1 X68.212 Y31.640 E38.53282
G1 X68.761 Y32.268 E38.60990
G1 X69.188 Y32.983 E38.68698
G1 X69.481 Y33.763 E38.76406
G1 X69.631 Y34.591 E38.84187
G1 X69.650 Y35.008 E38.88046
G1 X69.650 Y60.794 E41.26548
G1 F1800.000 E40.26548
G92 E0
G1 X65.190 Y30.399 F7800.000
G1 X66.884 Y32.771 F7800.000
G1 E1.00000 F1800.000
G1 X67.221 Y33.107 E1.04402 F1080.000
G1 X67.913 Y34.709 F7800.000
G1 X65.307 Y32.103 E1.38478 F1080.000
G1 X64.357 Y32.062 E1.47281
G1 X67.938 Y35.643 E1.94125
G1 X67.938 Y36.553 E2.02538
G1 X63.447 Y32.062 E2.61280
G1 X62.538 Y32.062 E2.69692
G1 X67.938 Y37.463 E3.40330
G1 X67.938 Y38.372 E3.48743
G1 X61.628 Y32.062 E4.31277
G1 X60.719 Y32.062 E4.39690
G1 X67.938 Y39.282 E5.34121
G1 X67.938 Y40.191 E5.42534
G1 X59.809 Y32.062 E6.48861
G1 X58.900 Y32.063 E6.57274
G1 X67.938 Y41.101 E7.75498
