; generated by Slic3r 1.1.7 on 2014-12-12 at 03:39:17

; perimeters extrusion width = 0.40mm
; infill extrusion width = 0.42mm
; solid infill extrusion width = 0.42mm
; top infill extrusion width = 0.42mm

; perimeters extrusion width = 0.40mm
; infill extrusion width = 0.42mm
; solid infill extrusion width = 0.42mm
; top infill extrusion width = 0.42mm

G21 ; set units to millimeters
M107
M104 S200 ; set temperature 
G28 ; home all axes
G1 Z5 F5000 ; lift nozzle
M109 S200 ; wait for temperature to be reached 
G90 ; use absolute coordinates
G92 E0
M82 ; use absolute distances for extrusion
; This is the beginning of a color change
; Old line = T0
G92 E0
; This is the end of a color change
G92 E0
G1 F1800.000 E-1.00000
G92 E0
G1 Z0.350 F7800.000
G1 X33.382 Y34.236 F7800.000
G1 E1.00000 F1800.000
G1 X34.654 Y33.020 E1.16274 F1080.000
G1 X35.004 Y32.741 E1.20419
G1 X36.472 Y31.772 E1.36689
G1 X36.775 Y31.609 E1.39869
G1 X38.485 Y30.868 E1.57106
G1 X38.911 Y30.729 E1.61251
G1 X40.626 Y30.338 E1.77524
G1 X42.168 Y30.191 E1.91845
G1 X42.500 Y30.186 E1.94918
G1 X57.720 Y30.189 E3.35689
G1 X58.930 Y30.278 E3.46906 F1080.000
G1 X59.374 Y30.338 E3.51052
G1 X61.089 Y30.729 E3.67324
G1 X61.515 Y30.868 E3.71470
G1 X63.133 Y31.559 E3.87742
G1 X63.528 Y31.772 E3.91890
G1 X64.996 Y32.741 E4.08160
G1 X65.346 Y33.020 E4.12307
G1 X66.618 Y34.236 E4.28578
G1 X66.913 Y34.574 E4.32725
G1 X67.947 Y35.997 E4.48997
G1 X68.177 Y36.382 E4.53144
G1 X68.940 Y37.967 E4.69412
G1 X69.098 Y38.387 E4.73563
G1 X69.566 Y40.083 E4.89832
G1 X69.796 Y41.888 E5.06665
G1 X69.814 Y42.500 E5.12330
G1 X69.804 Y57.940 E6.55139
G1 X69.646 Y59.476 E6.69421
G1 X69.566 Y59.918 E6.73567
G1 X69.098 Y61.613 E6.89837
G1 X68.940 Y62.033 E6.93985
G1 X68.177 Y63.618 E7.10257
G1 X67.947 Y64.003 E7.14402
G1 X66.913 Y65.426 E7.30675
G1 X66.687 Y65.685 E7.33855
G1 X65.346 Y66.980 E7.51090
G1 X64.996 Y67.259 E7.55235
G1 X63.528 Y68.228 E7.71507
G1 X63.133 Y68.441 E7.75654
G1 X61.515 Y69.132 E7.91926
G1 X61.089 Y69.271 E7.96072
G1 X59.374 Y69.662 E8.12344
G1 X57.832 Y69.809 E8.26667
G1 X57.500 Y69.814 E8.29738
G1 X41.840 Y69.792 E9.74578
G1 X41.504 Y69.769 E9.77691
G1 X39.981 Y69.545 E9.91935
G1 X39.544 Y69.445 E9.96081
G1 X37.870 Y68.902 E10.12352
G1 X37.458 Y68.726 E10.16498
G1 X35.909 Y67.892 E10.32771
G1 X35.535 Y67.645 E10.36918
G1 X34.160 Y66.548 E10.53187
G1 X33.835 Y66.238 E10.57335
G1 X32.678 Y64.913 E10.73607
G1 X32.414 Y64.551 E10.77753
G1 X31.512 Y63.040 E10.94025
G1 X31.318 Y62.636 E10.98171
G1 X30.699 Y60.989 E11.14445
G1 X30.580 Y60.557 E11.18590
G1 X30.266 Y58.826 E11.34861
G1 X30.186 Y57.500 E11.47149
G1 X30.196 Y42.060 E12.89956
G1 X30.354 Y40.524 E13.04238
G1 X30.434 Y40.083 E13.08385
G1 X30.902 Y38.387 E13.24659
G1 X31.060 Y37.967 E13.28804
G1 X31.823 Y36.382 E13.45077
G1 X32.053 Y35.997 E13.49223
G1 X33.087 Y34.574 E13.65495
G1 X33.342 Y34.281 E13.69085
G1 X33.861 Y34.654 F7800.000
G1 X35.050 Y33.517 E13.84305 F1080.000
G1 X35.400 Y33.238 E13.88450
G1 X36.773 Y32.331 E14.03666
G1 X37.076 Y32.169 E14.06847
G1 X38.681 Y31.472 E14.23029
G1 X39.108 Y31.334 E14.27175
G1 X40.712 Y30.968 E14.42393
G1 X42.182 Y30.827 E14.56055
G1 X42.500 Y30.822 E14.58996
G1 X57.706 Y30.824 E15.99635
G1 X58.844 Y30.907 E16.10193 F1080.000
G1 X59.288 Y30.968 E16.14339
G1 X60.892 Y31.334 E16.29557
G1 X61.319 Y31.472 E16.33703
G1 X62.832 Y32.119 E16.48921
G1 X63.227 Y32.331 E16.53069
G1 X64.600 Y33.238 E16.68285
G1 X64.950 Y33.517 E16.72432
G1 X66.139 Y34.654 E16.87649
G1 X66.434 Y34.992 E16.91796
G1 X67.401 Y36.323 E17.07014
G1 X67.631 Y36.708 E17.11161
G1 X68.345 Y38.190 E17.26376
G1 X68.503 Y38.610 E17.30526
G1 X68.940 Y40.196 E17.45742
G1 X69.161 Y41.916 E17.61784
G1 X69.178 Y42.500 E17.67184
G1 X69.169 Y57.912 E19.09730
G1 X69.021 Y59.363 E19.23221
G1 X68.940 Y59.804 E19.27367
G1 X68.503 Y61.390 E19.42584
G1 X68.345 Y61.810 E19.46731
G1 X67.631 Y63.292 E19.61949
G1 X67.401 Y63.677 E19.66094
G1 X66.434 Y65.008 E19.81313
G1 X66.139 Y65.346 E19.85460
G1 X64.950 Y66.483 E20.00678
G1 X64.600 Y66.762 E20.04823
G1 X63.227 Y67.669 E20.20041
G1 X62.832 Y67.881 E20.24188
G1 X61.319 Y68.528 E20.39406
G1 X60.892 Y68.666 E20.43552
G1 X59.288 Y69.032 E20.58770
G1 X57.818 Y69.173 E20.72434
G1 X57.500 Y69.178 E20.75373
G1 X41.883 Y69.157 E22.19818
G1 X41.547 Y69.135 E22.22931
G1 X40.122 Y68.925 E22.36252
G1 X39.685 Y68.826 E22.40398
G1 X38.120 Y68.317 E22.55615
G1 X37.708 Y68.141 E22.59761
G1 X36.259 Y67.361 E22.74980
G1 X35.885 Y67.114 E22.79127
G1 X34.599 Y66.089 E22.94342
G1 X34.275 Y65.779 E22.98490
G1 X33.192 Y64.540 E23.13709
G1 X32.929 Y64.177 E23.17854
G1 X32.085 Y62.765 E23.33072
G1 X31.890 Y62.361 E23.37218
G1 X31.312 Y60.820 E23.52438
G1 X31.193 Y60.388 E23.56583
G1 X30.899 Y58.769 E23.71800
G1 X30.822 Y57.500 E23.83561
G1 X30.831 Y42.088 E25.26104
G1 X30.979 Y40.637 E25.39596
G1 X31.059 Y40.196 E25.43742
G1 X31.497 Y38.610 E25.58962
G1 X31.655 Y38.190 E25.63107
G1 X32.369 Y36.708 E25.78326
G1 X32.599 Y36.323 E25.82472
G1 X33.566 Y34.992 E25.97690
G1 X33.821 Y34.700 E26.01280
; This is the beginning of a color change
; Old line = T1
G92 E0
; This is the end of a color change
G92 E0
G1 X34.339 Y35.073 F7800.000
G1 X35.446 Y34.014 E0.14166 F1080.000
G1 X35.797 Y33.735 E0.18311
G1 X37.075 Y32.891 E0.32473
G1 X37.377 Y32.728 E0.35653
G1 X38.878 Y32.077 E0.50782
G1 X39.304 Y31.938 E0.54928
G1 X40.797 Y31.598 E0.69092
G1 X42.196 Y31.462 E0.82094
G1 X42.500 Y31.458 E0.84904
G1 X57.691 Y31.460 E2.25412
G1 X58.759 Y31.537 E2.35310 F1080.000
G1 X59.203 Y31.598 E2.39455
G1 X60.696 Y31.938 E2.53620
G1 X61.122 Y32.077 E2.57766
G1 X62.531 Y32.679 E2.71930
G1 X62.925 Y32.891 E2.76077
G1 X64.203 Y33.735 E2.90240
G1 X64.554 Y34.014 E2.94387
G1 X65.661 Y35.073 E3.08550
G1 X65.956 Y35.410 E3.12697
G1 X66.856 Y36.649 E3.26861
G1 X67.086 Y37.034 E3.31008
G1 X67.750 Y38.413 E3.45169
G1 X67.908 Y38.834 E3.49319
G1 X68.315 Y40.310 E3.63481
G1 X68.526 Y41.945 E3.78732
G1 X68.542 Y42.500 E3.83869
G1 X68.534 Y57.883 E5.26150
G1 X68.395 Y59.249 E5.38850
G1 X68.315 Y59.691 E5.42997
G1 X67.908 Y61.167 E5.57159
G1 X67.750 Y61.586 E5.61307
G1 X67.086 Y62.966 E5.75471
G1 X66.856 Y63.351 E5.79616
G1 X65.956 Y64.590 E5.93781
G1 X65.661 Y64.928 E5.97928
G1 X64.554 Y65.986 E6.12092
G1 X64.203 Y66.265 E6.16237
G1 X62.925 Y67.109 E6.30401
G1 X62.531 Y67.321 E6.34548
G1 X61.122 Y67.923 E6.48712
G1 X60.696 Y68.062 E6.52857
G1 X59.203 Y68.402 E6.67022
G1 X57.804 Y68.538 E6.80027
G1 X57.500 Y68.542 E6.82834
G1 X41.926 Y68.523 E8.26883
G1 X41.590 Y68.501 E8.29996
G1 X40.264 Y68.306 E8.42395
G1 X39.826 Y68.206 E8.46541
G1 X38.370 Y67.733 E8.60704
G1 X37.958 Y67.557 E8.64850
G1 X36.609 Y66.831 E8.79015
G1 X36.235 Y66.584 E8.83162
G1 X35.038 Y65.629 E8.97323
G1 X34.714 Y65.319 E9.01471
G1 X33.706 Y64.166 E9.15635
G1 X33.443 Y63.803 E9.19781
G1 X32.657 Y62.489 E9.33945
G1 X32.463 Y62.085 E9.38091
G1 X31.925 Y60.651 E9.52257
G1 X31.806 Y60.219 E9.56402
G1 X31.532 Y58.712 E9.70565
G1 X31.458 Y57.500 E9.81799
G1 X31.466 Y42.117 E11.24078
G1 X31.605 Y40.751 E11.36779
G1 X31.685 Y40.310 E11.40925
G1 X32.092 Y38.833 E11.55091
G1 X32.250 Y38.414 E11.59236
G1 X32.914 Y37.034 E11.73401
G1 X33.144 Y36.649 E11.77547
G1 X34.044 Y35.410 E11.91711
G1 X34.300 Y35.118 E11.95302
G1 X34.818 Y35.491 F7800.000
G1 X35.843 Y34.511 E12.08413 F1080.000
G1 X36.193 Y34.232 E12.12559
G1 X37.376 Y33.451 E12.25667
G1 X37.679 Y33.288 E12.28847
G1 X39.074 Y32.681 E12.42922
G1 X39.500 Y32.543 E12.47067
G1 X40.882 Y32.227 E12.60178
G1 X42.211 Y32.098 E12.72521
G1 X42.500 Y32.093 E12.75199
G1 X57.677 Y32.095 E14.15574
G1 X58.674 Y32.167 E14.24813 F1080.000
G1 X59.118 Y32.227 E14.28959
G1 X60.500 Y32.543 E14.42069
G1 X60.926 Y32.681 E14.46215
G1 X62.229 Y33.238 E14.59326
G1 X62.624 Y33.451 E14.63473
G1 X63.807 Y34.232 E14.76581
G1 X64.158 Y34.511 E14.80728
G1 X65.182 Y35.491 E14.93838
G1 X65.477 Y35.828 E14.97984
G1 X66.310 Y36.975 E15.11095
G1 X66.540 Y37.360 E15.15241
G1 X67.155 Y38.637 E15.28349
G1 X67.313 Y39.057 E15.32498
G1 X67.690 Y40.423 E15.45607
G1 X67.891 Y41.973 E15.60067
G1 X67.907 Y42.500 E15.64940
G1 X67.899 Y57.855 E17.06958
G1 X67.770 Y59.136 E17.18867
G1 X67.690 Y59.577 E17.23013
G1 X67.313 Y60.943 E17.36122
G1 X67.155 Y61.363 E17.40269
G1 X66.540 Y62.640 E17.53379
G1 X66.310 Y63.025 E17.57525
G1 X65.477 Y64.172 E17.70636
G1 X65.182 Y64.509 E17.74782
G1 X64.158 Y65.489 E17.87892
G1 X63.807 Y65.768 E17.92038
G1 X62.624 Y66.549 E18.05148
G1 X62.229 Y66.762 E18.09295
G1 X60.926 Y67.319 E18.22405
G1 X60.500 Y67.457 E18.26550
G1 X59.118 Y67.773 E18.39660
G1 X57.789 Y67.902 E18.52006
G1 X57.500 Y67.907 E18.54682
G1 X41.968 Y67.889 E19.98336
G1 X40.405 Y67.686 E20.12917
G1 X39.968 Y67.586 E20.17063
G1 X38.620 Y67.148 E20.30172
G1 X38.208 Y66.972 E20.34318
G1 X36.959 Y66.300 E20.47430
G1 X36.585 Y66.053 E20.51576
G1 X35.477 Y65.170 E20.64684
G1 X35.153 Y64.860 E20.68831
G1 X34.221 Y63.792 E20.81942
G1 X33.957 Y63.430 E20.86087
G1 X33.230 Y62.213 E20.99198
G1 X33.036 Y61.809 E21.03343
G1 X32.537 Y60.482 E21.16455
G1 X32.418 Y60.050 E21.20600
G1 X32.165 Y58.655 E21.33710
G1 X32.093 Y57.500 E21.44416
G1 X32.101 Y42.145 E22.86432
G1 X32.230 Y40.864 E22.98341
G1 X32.310 Y40.423 E23.02488
G1 X32.687 Y39.057 E23.15599
G1 X32.845 Y38.637 E23.19744
G1 X33.460 Y37.360 E23.32856
G1 X33.690 Y36.975 E23.37002
G1 X34.523 Y35.828 E23.50112
G1 X34.778 Y35.536 E23.53702
; This is the beginning of a color change
; Old line = T0
G92 E0
; This is the end of a color change
G92 E0
G1 X35.297 Y35.909 F7800.000
G1 X36.239 Y35.008 E0.12058 F1080.000
G1 X36.589 Y34.729 E0.16203
G1 X37.677 Y34.011 E0.28258
G1 X37.980 Y33.848 E0.31437
G1 X39.271 Y33.286 E0.44458
G1 X39.697 Y33.147 E0.48604
G1 X40.968 Y32.857 E0.60660
G1 X42.225 Y32.733 E0.72344
G1 X42.500 Y32.729 E0.74890
G1 X57.663 Y32.731 E2.15134
G1 X58.588 Y32.797 E2.23714 F1080.000
G1 X59.032 Y32.857 E2.27859
G1 X60.303 Y33.147 E2.39916
G1 X60.730 Y33.286 E2.44061
G1 X61.928 Y33.798 E2.56118
G1 X62.323 Y34.011 E2.60265
G1 X63.411 Y34.729 E2.72320
G1 X63.761 Y35.008 E2.76467
G1 X64.703 Y35.909 E2.88523
G1 X64.998 Y36.247 E2.92669
G1 X65.765 Y37.301 E3.04725
G1 X65.994 Y37.686 E3.08872
G1 X66.560 Y38.860 E3.20926
G1 X66.718 Y39.280 E3.25075
G1 X67.064 Y40.537 E3.37129
G1 X67.256 Y42.002 E3.50799
G1 X67.271 Y42.500 E3.55408
G1 X67.264 Y57.826 E4.97162
G1 X67.144 Y59.022 E5.08280
G1 X67.064 Y59.464 E5.12427
G1 X66.718 Y60.720 E5.24481
G1 X66.560 Y61.140 E5.28628
G1 X65.994 Y62.314 E5.40685
G1 X65.765 Y62.699 E5.44830
G1 X64.998 Y63.753 E5.56887
G1 X64.772 Y64.012 E5.60066
G1 X63.761 Y64.992 E5.73086
G1 X63.411 Y65.271 E5.77232
G1 X62.323 Y65.989 E5.89288
G1 X61.928 Y66.202 E5.93434
G1 X60.730 Y66.714 E6.05491
G1 X60.303 Y66.853 E6.09636
G1 X59.032 Y67.143 E6.21692
G1 X57.775 Y67.267 E6.33379
G1 X57.500 Y67.271 E6.35923
G1 X42.011 Y67.255 E7.79181
G1 X40.546 Y67.066 E7.92840
G1 X40.109 Y66.967 E7.96986
G1 X38.870 Y66.564 E8.09042
G1 X38.458 Y66.388 E8.13187
G1 X37.310 Y65.770 E8.25245
G1 X36.935 Y65.523 E8.29391
G1 X35.917 Y64.710 E8.41445
G1 X35.592 Y64.400 E8.45592
G1 X34.735 Y63.419 E8.57649
G1 X34.471 Y63.056 E8.61794
G1 X33.803 Y61.937 E8.73851
G1 X33.608 Y61.533 E8.77997
G1 X33.150 Y60.313 E8.90054
G1 X33.031 Y59.881 E8.94200
G1 X32.798 Y58.598 E9.06255
G1 X32.729 Y57.500 E9.16434
G1 X32.736 Y42.174 E10.58186
G1 X32.856 Y40.978 E10.69305
G1 X32.936 Y40.537 E10.73451
G1 X33.282 Y39.280 E10.85508
G1 X33.440 Y38.860 E10.89654
G1 X34.006 Y37.686 E11.01711
G1 X34.236 Y37.301 E11.05857
G1 X35.002 Y36.247 E11.17913
G1 X35.257 Y35.954 E11.21503
G1 X35.775 Y36.327 F7800.000
G1 X36.635 Y35.505 E11.32507 F1080.000
G1 X36.986 Y35.226 E11.36652
G1 X37.978 Y34.570 E11.47653
G1 X38.281 Y34.407 E11.50833
G1 X39.467 Y33.890 E11.62800
G1 X39.893 Y33.752 E11.66945
G1 X41.053 Y33.487 E11.77948
G1 X42.239 Y33.369 E11.88973
G1 X42.500 Y33.364 E11.91387
G1 X57.649 Y33.366 E13.31499
G1 X58.503 Y33.427 E13.39419 F1080.000
G1 X58.947 Y33.487 E13.43565
G1 X60.107 Y33.752 E13.54567
G1 X60.533 Y33.890 E13.58713
G1 X61.627 Y34.358 E13.69716
G1 X62.022 Y34.570 E13.73863
G1 X63.014 Y35.226 E13.84863
G1 X63.365 Y35.505 E13.89010
G1 X64.225 Y36.327 E14.00012
G1 X64.520 Y36.665 E14.04158
G1 X65.219 Y37.627 E14.15161
G1 X65.449 Y38.012 E14.19307
G1 X65.965 Y39.084 E14.30307
G1 X66.122 Y39.503 E14.34456
G1 X66.439 Y40.650 E14.45457
G1 X66.621 Y42.030 E14.58336
G1 X66.636 Y42.500 E14.62681
G1 X66.629 Y57.798 E16.04171
G1 X66.519 Y58.909 E16.14499
G1 X66.439 Y59.350 E16.18645
G1 X66.122 Y60.497 E16.29646
G1 X65.965 Y60.916 E16.33793
G1 X65.449 Y61.988 E16.44795
G1 X65.219 Y62.373 E16.48941
G1 X64.520 Y63.335 E16.59944
G1 X64.294 Y63.594 E16.63123
G1 X63.365 Y64.495 E16.75089
G1 X63.014 Y64.774 E16.79234
G1 X62.022 Y65.430 E16.90237
G1 X61.627 Y65.642 E16.94383
G1 X60.434 Y66.142 E17.06349
G1 X60.107 Y66.248 E17.09527
G1 X58.947 Y66.513 E17.20530
G1 X57.761 Y66.631 E17.31556
G1 X57.500 Y66.636 E17.33969
G1 X42.054 Y66.621 E18.76832
G1 X40.688 Y66.447 E18.89568
G1 X40.251 Y66.347 E18.93714
G1 X39.120 Y65.979 E19.04716
G1 X38.707 Y65.803 E19.08861
G1 X37.660 Y65.239 E19.19865
G1 X37.286 Y64.992 E19.24011
G1 X36.356 Y64.251 E19.35012
G1 X36.032 Y63.941 E19.39159
G1 X35.249 Y63.045 E19.50161
G1 X34.986 Y62.683 E19.54307
G1 X34.375 Y61.661 E19.65310
G1 X34.181 Y61.258 E19.69455
G1 X33.763 Y60.144 E19.80459
G1 X33.644 Y59.712 E19.84604
G1 X33.431 Y58.541 E19.95606
G1 X33.364 Y57.500 E20.05257
G1 X33.371 Y42.202 E21.46745
G1 X33.481 Y41.091 E21.57073
G1 X33.561 Y40.650 E21.61220
G1 X33.878 Y39.503 E21.72223
G1 X34.035 Y39.084 E21.76368
G1 X34.551 Y38.012 E21.87372
G1 X34.781 Y37.627 E21.91517
G1 X35.480 Y36.665 E22.02520
G1 X35.736 Y36.372 E22.06110
G1 F1800.000 E21.06110
G92 E0
G1 X56.001 Y56.001 F7800.000
G1 E1.00000 F1800.000
G1 X55.384 Y56.560 E1.07703 F540.000
G1 X54.715 Y57.057 E1.15406
G1 X54.001 Y57.485 E1.23109
G1 X53.248 Y57.841 E1.30813
G1 X52.464 Y58.121 E1.38516
G1 X51.656 Y58.324 E1.46219
G1 X50.832 Y58.446 E1.53922
G1 X50.269 Y58.474 E1.59135
G1 X50.000 Y58.487 E1.61625
G1 X49.168 Y58.446 E1.69329
G1 X48.344 Y58.324 E1.77032
G1 X47.536 Y58.121 E1.84735
G1 X46.752 Y57.841 E1.92438
G1 X45.999 Y57.485 E2.00141
G1 X45.285 Y57.057 E2.07844
G1 X44.616 Y56.560 E2.15548
G1 X43.999 Y56.001 E2.23251
G1 X43.440 Y55.384 E2.30954
G1 X42.943 Y54.715 E2.38657
G1 X42.515 Y54.001 E2.46360
G1 X42.159 Y53.248 E2.54063
G1 X41.879 Y52.464 E2.61766
G1 X41.676 Y51.656 E2.69470
G1 X41.554 Y50.832 E2.77173
G1 X41.513 Y50.000 E2.84876
G1 X41.554 Y49.168 E2.92579
G1 X41.676 Y48.344 E3.00282
G1 X41.879 Y47.536 E3.07985
G1 X42.159 Y46.752 E3.15689
G1 X42.400 Y46.243 E3.20902
G1 X42.515 Y45.999 E3.23392
G1 X42.943 Y45.285 E3.31095
G1 X43.440 Y44.616 E3.38798
G1 X43.999 Y43.999 E3.46501
G1 X44.616 Y43.440 E3.54204
G1 X45.069 Y43.104 E3.59417
G1 X45.285 Y42.943 E3.61908
G1 X45.999 Y42.515 E3.69611
G1 X46.752 Y42.159 E3.77314
G1 X47.536 Y41.879 E3.85017
G1 X48.344 Y41.676 E3.92720
G1 X49.168 Y41.554 E4.00423
G1 X50.000 Y41.513 E4.08127
G1 X50.269 Y41.526 E4.10617
G1 X50.832 Y41.554 E4.15830 F540.000
G1 X51.656 Y41.676 E4.23533
G1 X52.464 Y41.879 E4.31236
G1 X53.248 Y42.159 E4.38939
G1 X54.001 Y42.515 E4.46642
G1 X54.715 Y42.943 E4.54345
G1 X55.384 Y43.440 E4.62049
G1 X56.001 Y43.999 E4.69752
G1 X56.560 Y44.616 E4.77455
G1 X57.057 Y45.285 E4.85158
G1 X57.485 Y45.999 E4.92861
G1 X57.841 Y46.752 E5.00565
G1 X58.121 Y47.536 E5.08268
G1 X58.187 Y47.798 E5.10758
G1 X58.324 Y48.344 E5.15971
G1 X58.446 Y49.168 E5.23674
G1 X58.487 Y50.000 E5.31377
G1 X58.446 Y50.832 E5.39080
G1 X58.324 Y51.656 E5.46784
G1 X58.121 Y52.464 E5.54487
G1 X57.841 Y53.248 E5.62190
G1 X57.485 Y54.001 E5.69893
G1 X57.057 Y54.715 E5.77596
G1 X56.560 Y55.384 E5.85299
G1 X56.041 Y55.957 E5.92447
G1 X55.551 Y55.551 F7800.000
G1 X54.980 Y56.068 E5.99573 F378.000
G1 X54.361 Y56.527 E6.06699
G1 X53.701 Y56.923 E6.13824
G1 X53.486 Y57.025 E6.16025
G1 X53.004 Y57.253 E6.20950
G1 X52.279 Y57.512 E6.28075
G1 X51.532 Y57.700 E6.35201
G1 X50.769 Y57.813 E6.42326
G1 X50.238 Y57.839 E6.47250
G1 X50.000 Y57.850 E6.49452
G1 X49.231 Y57.813 E6.56577
G1 X48.468 Y57.700 E6.63703
G1 X47.721 Y57.512 E6.70828
